public/cards/A-D.svg

<?xml version="1.0" encoding="UTF-8"?>
<svg width="360px" height="540px" viewBox="0 0 360 540" version="1.1" xmlns="http://www.w3.org/2000/svg" xmlns:xlink="http://www.w3.org/1999/xlink">
    <!-- Generator: Sketch 55.2 (78181) - https://sketchapp.com -->
    <title>A-D</title>
    <desc>Created with Sketch.</desc>
    <g id="Page-1" stroke="none" stroke-width="1" fill="none" fill-rule="evenodd">
        <g id="English_pattern_playing_cards_deck" transform="translate(0.000000, -1141.000000)" fill-rule="nonzero">
            <g id="A-D" transform="translate(0.000000, 1140.637820)">
                <rect id="rect6472-38" stroke="#000000" stroke-width="0.99999976" fill="#FFFFFF" x="0.5" y="0.86218" width="359" height="539" rx="29.944447"></rect>
                <path d="M180,225.36218 C180,225.36218 186,240.36218 193,250.36218 C200,260.36218 210,270.36218 210,270.36218 C210,270.36218 200,280.36218 193,290.36218 C186,300.36218 180,315.36218 180,315.36218 C180,315.36218 174,300.36218 167,290.36218 C160,280.36218 150,270.36218 150,270.36218 C150,270.36218 160,260.36218 167,250.36218 C174,240.36218 180,225.36218 180,225.36218" id="path3204-24-49" fill="#FF5555"></path>
                <path d="M27.5,30.36218 L18.5,80.36218 L23.5,80.36218 L25.84375,67.36218 L34.15625,67.36218 L36.5,80.36218 L41.5,80.36218 L32.5,30.36218 L27.5,30.36218 Z M30,44.26843 L33.25,62.36218 L26.75,62.36218 L30,44.26843 Z" id="path3497-2" fill="#FF5555"></path>
                <path d="M327.5,510.3622 L318.5,460.36216 L323.5,460.36216 L325.84375,473.36216 L334.15625,473.36216 L336.5,460.36216 L341.5,460.36216 L332.5,510.3622 L327.5,510.3622 Z M330,496.4559 L333.25,478.36218 L326.75,478.36218 L330,496.4559 Z" id="path3497-5-6" fill="#FF5555"></path>
                <path d="M30,90.36218 C30,90.36218 33,97.86218 36.5,102.86218 C40,107.86218 45,112.86218 45,112.86218 C45,112.86218 40,117.86218 36.5,122.86218 C33,127.86218 30,135.36218 30,135.36218 C30,135.36218 27,127.86218 23.5,122.86218 C20,117.86218 15,112.86218 15,112.86218 C15,112.86218 20,107.86218 23.5,102.86218 C27,97.86218 30,90.36218 30,90.36218" id="path3204-24-1-57" fill="#FF5555"></path>
                <path d="M330,405.36218 C330,405.36218 333,412.86218 336.5,417.86218 C340,422.86218 345,427.86218 345,427.86218 C345,427.86218 340,432.86218 336.5,437.86218 C333,442.86218 330,450.36218 330,450.36218 C330,450.36218 327,442.86218 323.5,437.86218 C320,432.86218 315,427.86218 315,427.86218 C315,427.86218 320,422.86218 323.5,417.86218 C327,412.86218 330,405.36218 330,405.36218" id="path3204-24-1-7" fill="#FF5555"></path>
            </g>
        </g>
    </g>
</svg>

<svg width="360" height="540" xmlns="http://www.w3.org/2000/svg"><g transform="translate(0 -.362)" fill-rule="nonzero" fill="none"><rect stroke="#000" fill="#FFF" x=".5" y=".862" width="359" height="539" rx="29.944"/><path d="M180 225.362s6 15 13 25 17 20 17 20-10 10-17 20-13 25-13 25-6-15-13-25-17-20-17-20 10-10 17-20 13-25 13-25M27.5 30.362l-9 50h5l2.344-13h8.312l2.344 13h5l-9-50h-5zM30 44.268l3.25 18.094h-6.5L30 44.268zM327.5 510.362l-9-50h5l2.344 13h8.312l2.344-13h5l-9 50h-5zm2.5-13.906l3.25-18.094h-6.5l3.25 18.094zM30 90.362s3 7.5 6.5 12.5 8.5 10 8.5 10-5 5-8.5 10-6.5 12.5-6.5 12.5-3-7.5-6.5-12.5-8.5-10-8.5-10 5-5 8.5-10 6.5-12.5 6.5-12.5M330 405.362s3 7.5 6.5 12.5 8.5 10 8.5 10-5 5-8.5 10-6.5 12.5-6.5 12.5-3-7.5-6.5-12.5-8.5-10-8.5-10 5-5 8.5-10 6.5-12.5 6.5-12.5" fill="#F55"/></g></svg>
